Sweet-Rainbow/icons/rambox.svg

<?xml version="1.0" encoding="UTF-8" standalone="no"?>
<!-- Generator: Gravit.io -->

<svg
   xmlns:dc="http://purl.org/dc/elements/1.1/"
   xmlns:cc="http://creativecommons.org/ns#"
   xmlns:rdf="http://www.w3.org/1999/02/22-rdf-syntax-ns#"
   xmlns:svg="http://www.w3.org/2000/svg"
   xmlns="http://www.w3.org/2000/svg"
   xmlns:sodipodi="http://sodipodi.sourceforge.net/DTD/sodipodi-0.dtd"
   xmlns:inkscape="http://www.inkscape.org/namespaces/inkscape"
   style="isolation:isolate"
   viewBox="0 0 36 36"
   width="48"
   height="48"
   version="1.1"
   id="svg21"
   sodipodi:docname="rambox.svg"
   inkscape:version="0.92.4 (5da689c313, 2019-01-14)">
  <metadata
     id="metadata27">
    <rdf:RDF>
      <cc:Work
         rdf:about="">
        <dc:format>image/svg+xml</dc:format>
        <dc:type
           rdf:resource="http://purl.org/dc/dcmitype/StillImage" />
        <dc:title></dc:title>
      </cc:Work>
    </rdf:RDF>
  </metadata>
  <defs
     id="defs25" />
  <sodipodi:namedview
     pagecolor="#ffffff"
     bordercolor="#666666"
     borderopacity="1"
     objecttolerance="10"
     gridtolerance="10"
     guidetolerance="10"
     inkscape:pageopacity="0"
     inkscape:pageshadow="2"
     inkscape:window-width="640"
     inkscape:window-height="480"
     id="namedview23"
     showgrid="false"
     inkscape:zoom="29.365243"
     inkscape:cx="25.325443"
     inkscape:cy="32"
     inkscape:current-layer="svg21"
     units="px" />
  <linearGradient
     id="_lgradient_8"
     x1="-3.8208334e-05"
     y1="0.50000006"
     x2="0.99996185"
     y2="0.50000006"
     gradientTransform="matrix(26.7,0,0,29.62,6.254,15)"
     gradientUnits="userSpaceOnUse">
    <stop
       offset="0%"
       stop-opacity="1"
       style="stop-color:rgb(0,198,255)"
       id="stop2" />
    <stop
       offset="98.69565217391305%"
       stop-opacity="1"
       style="stop-color:rgb(0,114,255)"
       id="stop4" />
  </linearGradient>
  <linearGradient
     id="_lgradient_9"
     x1="4.5053024"
     y1="27.583298"
     x2="33.517208"
     y2="41.012959"
     gradientTransform="scale(0.94466669,1.0585744)"
     gradientUnits="userSpaceOnUse">
    <stop
       offset="0%"
       stop-opacity="1"
       style="stop-color:rgb(0,196,255)"
       id="stop7" />
    <stop
       offset="83.88839793817618%"
       stop-opacity="1"
       style="stop-color:rgb(0,114,255)"
       id="stop9" />
  </linearGradient>
  <linearGradient
     id="_lgradient_10"
     x1="0"
     y1="0.5"
     x2="0.90748805"
     y2="0.92007786"
     gradientTransform="matrix(47.998,0,0,47.998,0.077,0)"
     gradientUnits="userSpaceOnUse">
    <stop
       offset="0%"
       stop-opacity="1"
       style="stop-color:rgb(0,196,255)"
       id="stop14" />
    <stop
       offset="83.88839793817618%"
       stop-opacity="1"
       style="stop-color:rgb(0,114,255)"
       id="stop16" />
  </linearGradient>
  <g
     id="g839"
     transform="matrix(0.75002673,0,0,0.75002673,-0.05801734,-2.0328676e-4)">
    <path
       id="path12"
       stroke-miterlimit="4"
       d="m 23.08,15 c -1.9,0.995 -2.73,2.793 -3.59,4.488 -0.547,-0.739 -0.686,-1.775 -0.898,-2.693 -1.679,2.212 -2.42,5.887 -3.096,8.097 -0.957,3.144 -2.176,5.073 -3.918,6.196 -1.034,0.668 -1.962,1.01 -3.967,1.464 -0.507,0.151 -1.137,0.292 -1.357,0.342 0.623,1.691 1.492,3.262 2.563,4.669 0.258,0.339 0.528,0.668 0.81,0.988 0.031,0.036 0.064,0.07 0.096,0.105 0.792,0.885 1.674,1.685 2.627,2.397 0.114,0.085 0.224,0.174 0.34,0.256 0.265,0.189 0.539,0.367 0.815,0.542 0.154,0.096 0.31,0.191 0.468,0.283 0.27,0.16 0.54,0.316 0.819,0.462 0.184,0.096 0.374,0.18 0.563,0.27 0.435,0.208 0.88,0.398 1.335,0.571 0.261,0.099 0.521,0.199 0.787,0.286 0.241,0.079 0.486,0.147 0.731,0.215 0.267,0.075 0.534,0.143 0.805,0.206 0.324,0.074 0.647,0.152 0.979,0.208 0.907,0.157 1.838,0.246 2.788,0.261 h 0.008 c 0.097,0.002 0.193,0.007 0.292,0.007 0.268,0 0.533,-0.008 0.798,-0.018 1.044,-1.623 1.179,-4.158 0.829,-5.646 -0.213,-0.842 -0.766,-2.355 -0.729,-2.414 0.037,-0.059 0.938,0.032 1.705,0.032 0.907,0 1.572,0.033 2.052,-0.113 0.406,-0.123 0.891,-0.323 1.18,-0.308 1.28,0.064 2.902,-0.517 3.331,-1.656 0.132,-0.355 0.362,-0.811 0.509,-1.014 0.242,-0.333 0.25,-0.427 0.095,-0.95 -0.219,-0.74 -0.665,-1.354 -1.609,-2.217 -0.715,-0.652 -0.944,-0.719 -0.98,-1.42 -0.026,-0.513 0.112,-0.873 -0.167,-1.135 -0.315,-0.298 -1.245,-0.107 -1.297,-0.112 -0.331,-0.386 -0.647,-0.788 -0.037,-1.345 0.462,-0.422 0.546,-0.58 0.546,-1.041 0,-0.454 -0.083,-0.616 -0.483,-0.967 -0.264,-0.231 -0.548,-0.42 -0.633,-0.42 -0.083,0 -0.509,-0.339 -0.942,-0.752 -0.842,-0.801 -1.493,-0.943 -2.148,-0.943 -0.531,0 -1.122,-0.131 -1.122,-0.898 0.705,-2.554 3.43,-3.898 4.488,-4.488 -2.68,-0.38 -4.505,0.181 -6.283,1.795 -0.084,-0.938 0.798,-2.984 0.897,-3.59 z"
       style="vector-effect:non-scaling-stroke;fill:url(#_lgradient_8);stroke:url(#_lgradient_9);stroke-width:3;stroke-linecap:butt;stroke-linejoin:miter;stroke-miterlimit:4"
       inkscape:connector-curvature="0" />
    <path
       id="path19"
       d="m 42.858,30.879 v 0 c -0.379,1.036 0.155,2.184 1.191,2.563 v 0 c 1.036,0.379 2.184,-0.155 2.563,-1.191 v 0 C 47.485,29.88 47.973,27.385 48.061,24.867 48.352,16.522 44.286,8.595 37.323,3.989 33.646,1.549 29.351,0.169 24.944,0.015 16.599,-0.277 8.672,3.789 4.066,10.753 1.627,14.43 0.246,18.714 0.092,23.132 c -0.291,8.345 3.774,16.271 10.738,20.877 3.677,2.44 7.961,3.82 12.379,3.975 5.636,0.196 11.172,-1.592 15.625,-5.048 v 0 c 0.869,-0.682 1.025,-1.943 0.349,-2.815 v 0 c -0.677,-0.871 -1.936,-1.025 -2.81,-0.343 v 0 C 32.66,42.66 28.055,44.15 23.348,43.986 19.681,43.858 16.108,42.713 13.038,40.674 7.238,36.829 3.847,30.227 4.09,23.271 c 0.128,-3.678 1.273,-7.24 3.311,-10.31 3.845,-5.8 10.448,-9.191 17.403,-8.949 3.668,0.128 7.24,1.274 10.311,3.312 5.799,3.845 9.191,10.447 8.948,17.403 -0.073,2.099 -0.476,4.176 -1.205,6.152 z"
       style="fill:url(#_lgradient_10);fill-rule:evenodd"
       inkscape:connector-curvature="0" />
  </g>
</svg>

<?xml version="1.0" encoding="UTF-8" standalone="no"?><!-- Generator: Gravit.io --><svg xmlns="http://www.w3.org/2000/svg" xmlns:xlink="http://www.w3.org/1999/xlink" style="isolation:isolate" viewBox="0 0 48 48" width="48pt" height="48pt"><linearGradient id="_lgradient_8" x1="-0.000038208333333289435" y1="0.5000000833333331" x2="0.9999618333333335" y2="0.5000000833333331" gradientTransform="matrix(26.7,0,0,29.62,6.254,15)" gradientUnits="userSpaceOnUse"><stop offset="0%" stop-opacity="1" style="stop-color:rgb(0,198,255)"/><stop offset="98.69565217391305%" stop-opacity="1" style="stop-color:rgb(0,114,255)"/></linearGradient><linearGradient id="_lgradient_9" x1="0" y1="0.5" x2="0.9074880558539661" y2="0.9200778838291643"><stop offset="0%" stop-opacity="1" style="stop-color:rgb(0,196,255)"/><stop offset="83.88839793817618%" stop-opacity="1" style="stop-color:rgb(0,114,255)"/></linearGradient><path d=" M 23.08 15 C 21.18 15.995 20.35 17.793 19.49 19.488 C 18.943 18.749 18.804 17.713 18.592 16.795 C 16.913 19.007 16.172 22.682 15.496 24.892 C 14.539 28.036 13.32 29.965 11.578 31.088 C 10.544 31.756 9.616 32.098 7.611 32.552 C 7.104 32.703 6.474 32.844 6.254 32.894 C 6.877 34.585 7.746 36.156 8.817 37.563 C 9.075 37.902 9.345 38.231 9.627 38.551 C 9.658 38.587 9.691 38.621 9.723 38.656 C 10.515 39.541 11.397 40.341 12.35 41.053 C 12.464 41.138 12.574 41.227 12.69 41.309 C 12.955 41.498 13.229 41.676 13.505 41.851 C 13.659 41.947 13.815 42.042 13.973 42.134 C 14.243 42.294 14.513 42.45 14.792 42.596 C 14.976 42.692 15.166 42.776 15.355 42.866 C 15.79 43.074 16.235 43.264 16.69 43.437 C 16.951 43.536 17.211 43.636 17.477 43.723 C 17.718 43.802 17.963 43.87 18.208 43.938 C 18.475 44.013 18.742 44.081 19.013 44.144 C 19.337 44.218 19.66 44.296 19.992 44.352 C 20.899 44.509 21.83 44.598 22.78 44.613 L 22.788 44.613 C 22.885 44.615 22.981 44.62 23.08 44.62 C 23.348 44.62 23.613 44.612 23.878 44.602 C 24.922 42.979 25.057 40.444 24.707 38.956 C 24.494 38.114 23.941 36.601 23.978 36.542 C 24.015 36.483 24.916 36.574 25.683 36.574 C 26.59 36.574 27.255 36.607 27.735 36.461 C 28.141 36.338 28.626 36.138 28.915 36.153 C 30.195 36.217 31.817 35.636 32.246 34.497 C 32.378 34.142 32.608 33.686 32.755 33.483 C 32.997 33.15 33.005 33.056 32.85 32.533 C 32.631 31.793 32.185 31.179 31.241 30.316 C 30.526 29.664 30.297 29.597 30.261 28.896 C 30.235 28.383 30.373 28.023 30.094 27.761 C 29.779 27.463 28.849 27.654 28.797 27.649 C 28.466 27.263 28.15 26.861 28.76 26.304 C 29.222 25.882 29.306 25.724 29.306 25.263 C 29.306 24.809 29.223 24.647 28.823 24.296 C 28.559 24.065 28.275 23.876 28.19 23.876 C 28.107 23.876 27.681 23.537 27.248 23.124 C 26.406 22.323 25.755 22.181 25.1 22.181 C 24.569 22.181 23.978 22.05 23.978 21.283 C 24.683 18.729 27.408 17.385 28.466 16.795 C 25.786 16.415 23.961 16.976 22.183 18.59 C 22.099 17.652 22.981 15.606 23.08 15 Z " fill="url(#_lgradient_8)" vector-effect="non-scaling-stroke" stroke-width="3" stroke="url(#_lgradient_9)" stroke-linejoin="miter" stroke-linecap="butt" stroke-miterlimit="4"/><linearGradient id="_lgradient_10" x1="0" y1="0.5" x2="0.9074880558539661" y2="0.9200778838291643" gradientTransform="matrix(47.998,0,0,47.998,0.077,0)" gradientUnits="userSpaceOnUse"><stop offset="0%" stop-opacity="1" style="stop-color:rgb(0,196,255)"/><stop offset="83.88839793817618%" stop-opacity="1" style="stop-color:rgb(0,114,255)"/></linearGradient><path d=" M 42.858 30.879 L 42.858 30.879 C 42.479 31.915 43.013 33.063 44.049 33.442 L 44.049 33.442 C 45.085 33.821 46.233 33.287 46.612 32.251 L 46.612 32.251 C 47.485 29.88 47.973 27.385 48.061 24.867 C 48.352 16.522 44.286 8.595 37.323 3.989 C 33.646 1.549 29.351 0.169 24.944 0.015 C 16.599 -0.277 8.672 3.789 4.066 10.753 C 1.627 14.43 0.246 18.714 0.092 23.132 C -0.199 31.477 3.866 39.403 10.83 44.009 C 14.507 46.449 18.791 47.829 23.209 47.984 C 28.845 48.18 34.381 46.392 38.834 42.936 L 38.834 42.936 C 39.703 42.254 39.859 40.993 39.183 40.121 L 39.183 40.121 C 38.506 39.25 37.247 39.096 36.373 39.778 L 36.373 39.778 C 32.66 42.66 28.055 44.15 23.348 43.986 C 19.681 43.858 16.108 42.713 13.038 40.674 C 7.238 36.829 3.847 30.227 4.09 23.271 C 4.218 19.593 5.363 16.031 7.401 12.961 C 11.246 7.161 17.849 3.77 24.804 4.012 C 28.472 4.14 32.044 5.286 35.115 7.324 C 40.914 11.169 44.306 17.771 44.063 24.727 C 43.99 26.826 43.587 28.903 42.858 30.879 Z " fill-rule="evenodd" fill="url(#_lgradient_10)"/></svg>
